X:1
T:Audi dulcis amica
T:Audi dulcis amica
T:Orlande de Lassus
C:Orlande de Lassus
%%score [ 1 2 [ 3 4 ] ]
L:1/8
Q:1/4=100
M:2/2
K:F
V:1 treble nm="Superius" snm="S"
V:2 treble nm="Altus" snm="A"
V:3 treble-8 nm="Tenor 1" snm="T 1"
V:4 treble-8 nm="Tenor 2" snm="T 2"
V:1
 z8 | z8 | z8 | z8 | G8 | =B4 c4- | c4 d2 d2 | f2 c2 _e4 | d3 c BA B2- | BA AG/F/ G2 G2 | %10
w: ||||Au-|di, dul-|* cis a-|mi- ca me-|||
 AG AB c2 d2- | d2 c2 d4 | z4 d4- | d4 c4 | B4 A2 A2 | B4 A2 d2- | d2 c3 B AG | A4 A2 c2 | %18
w: |* * a,|Au|_ di,|dul- cis a-|mi- ca me-||a, a- mi-|
 G2 B3 c dB | cA d4 c2 | d8 | z2 d2 d2 B2 | e3 e d2 B2- | B2 A2 d2 B2 | A4 B2 G2 | GA BG B2 A2- | %26
w: ca me- * * *||a,|au- ri- bus|per- ci- pe ver-|* ba o- ris|me- * *|* * * * i, ver-|
 A2 GA BG c2- | c2 B2 A2 d2 | B2 G2 d3 d | A2 f4 e2 | d2 d2 c4 | A2 A4 B2 | G2 A3 G G2- | %33
w: * ba _ o- * ris|_ me- i, au-|ri- bus per- ci-|pe ver- ba|o- ris me-|i, ver- ba|o- ris- * me-|
[M:2/4]"^#" G2 F2 |[M:3/2] G8 d4 | d4 G4 G4 | A2 B2 c2 A2 B4 | A6 B2 c4 | =B8 z4 | z4 c4 c4 | %40
w: |i, ni-|gra es sed|for- * * * *|mo- * *|sa,|ni- gra|
 f2 e2 d2 c2 =B4 | c4 A4 =B4 | c12 |[M:2/2] B4 z4 | z8 | z8 | z4 z2 A2- | A2 A2 A4 | =B6 B2 | %49
w: es _ _ _ _|_ sed for-|mo-|sa,|||i-|* de- o,|i- de-|
 c4 G4 | c6 B2 | A2 G2 F2 B2 | A4 A4 | B2 B2 A2 A2 | B2 c2 B4- | B8- | B4 z2 B2- | B2 A2 B2 c2- | %58
w: o a-|mo- re|tu- o lan- gue-|o, a-|mo- re tu- o|lan- gue- o,|_|* et|_ qui- a tri-|
 cc c2 d2 d2- | d2 c2 B2 A2 | B8 | z8 | z8 | z2 c4 B2 | e2 d4 c2 | d4 z4 | z2 d2 d4 | ^c4 d4 | %68
w: * bu- lor ad te|_ con- fu- gi-|o,|||ad te|con- fu- gi-|o|ex- au-|di de-|
 B4 A4- | A8- | A8- | A4 z2 d2 | d2 c2 B2 A2 | c4 c4 | z2 f2 f2 e2 | d2 =B2 c2 d2- | dc c4 B2 | %77
w: pre- cor,|_||* o-|ra- ti- o- nem|me- am,-|o- ra- ti-|o- nem me- *||
 c4 z2 d2 | d2 c2 B2 c2- | c2 BA B2 A2 | G2 B4 A2- | A2 A2 B2 AB | cdef g2 f2- | fe d4 c2 | d4 z4 | %85
w: am,- o-|ra- ti- o- *|* * * nem me-|am, o- ra-|* ti- o- * *|* * * * nem me-||am,|
 d4 d2 c2 | B2 A3 G AB | c2 d2 c4- | c4 z4 | z8 | z2 f2 f2 e2 | d6 B2 | A4 =B4- | B8 |] %94
w: o- ra- ti-|o- * * * *|nem me- am,|_||o- ra- ti-|o- nem|me- am.|_|
V:2
 z8 | z8 | z8 | z8 | z4 G4- | G4 F4 | _E4 D4 | z2 A2 c2 G2 | B3 A GF G2- | GF F3 E E2 | F4 A4- | %11
w: ||||Au-|* di,|dul- cis|a- mi- ca|me- * * * *||a, au-|
 A4 G2 F2 | E2 G2 B4- | B2 B2 G4 | G4 D4- | D4 ^F4 | G4 AG FE | D2 D2 F2 E2- | E2 D2 DE FG | %19
w: * di, dul-|cis a- mi|_ ca me-|a, au-|* di,|dul- cis _ _ _|_ a- mi- ca|_ me- * * * *|
 A4 z2 A2 | A2 F2 B3 B | A4 z2 G2 | _E2 C2 G3 G | D2 F3 D G2- | G2 F2 G2 B2- | BA G4 FE | %26
w: a, au-|ri- bus per- ce-|pe, au-|ri- bus per- ce-|pe ver- * *|* * ba o-|* * ris me- *|
 F2 D2 G2 G2- | GF D2 D2 A2 | G2 B3 A F2 | F3 G A4 | z2 A4 G2 | F2 E2 ^F2 G2 | D2 F2 _E2 C2 | %33
w: * * i, ver-|* * * ba o-|ris me- * *|* * i,|ver- ba|o- ris me- *||
[M:2/4] D4 |[M:3/2] =B,12 | z4 z4 C4 | C4 F2 E2 D2 C2 | D4 C4 G4- | G2 F2 D4 E4 | E4 A8 | %40
w: |i,|ni-|gra es _ _ _|_ sed for-|* * * mo-|sa, ni-|
 A4 D4 G4 | G4 C4 G4- | G4 E4 F4 |[M:2/2] G6 G2 | B3 B A2 B2- | B2 A4 G2- | GF FE/D/ E4 | ^F8 | %48
w: gra es sed|for- * mo-||sa, et|ma- cu- la non|_ est in|_ _ _ _ _ _|te,|
 G6 G2 | E8 | G4 c4- | c2 B2 A2 G2 | F3 F F2 E2 | F2 G2 F2 E2 | D2 C2 D2 F2 | G4 G4- | G2 F2 F4 | %57
w: i- de-|o|a- mo-|* re tu- o|lan- gue- o, a-|mo- re tuo lan-|gue- * o, tu-|o lan-|* gue- o,|
 D4 F2 G2 | A3 A A2 B2 | A3 G F2 E2 | F2 F2 F2 G2 | A3 A A4 | B2 B4 A2 | G2 F2 G2 G2 | B3 B A2 G2 | %65
w: et qui- a|tri- bu- lor ad|te con- fu- gi-|o, et qui- a|tri- bu- lor|ad te con-|fu- gi- o, ad|te con- fu- gi-|
 A4 z2 A2 | A4 G2 F2 | A4 B3 A | GF G2 C2 C2 | D2 E2 F4 | E4 D2 F2 | F2 E2 D2 B2 | A4 F4 | A6 G2 | %74
w: o, ex-|au- di de-|pre- * *|* * * cor ex-|au- di de-|pre- cor, o-|ra- ti- o- nem|me- am,|o- ra-|
 B2 A3 F GA | B2 G2 A4 | G4 z2 G2 | G2 F2 E2 DE | FG A2 G4 | G3 F/E/ D4 | z2 G4 F2- | F2 E2 D2 C2 | %82
w: ti- o- * * *|* nem me-|am, o-|ra- ti- o- nem _|_ _ _ me-|* * * am,|o- ra-|* ti- o- nem,|
 z2 G2 B2 B2 | A2 B2 A4 | A8 | z2 B2 B2 A2 | G2 FE DE FG | AF B4 AG | A2 G4 FE | D2 C2 z2 B2 | %90
w: o- ra- ti-|o- nem me-|am,|o- ra- ti-|o- * * * * * *|* * * nem _|me- * * *|* am, o-|
 B2 A2 G4 | G2 B3 A G2- |"^#" G2 F2 G4- | G8 |] %94
w: ra- ti- o-|nem me- * *|* * am.|_|
V:3
 G8 | =B4 c4- | c4 d2 d2 | f2 c2 _e3 d |"^b" cB cd e4 | d2 d2 a4 | g2 g3 f/e/ fg | a2 f2 c4 | %8
w: Au-|di, dul|_ cis a-|mi- ca me- *||a, a- mi-|ca me- * * * *|* * a,|
"^b" z2 d2 e2 B2 | d4 c4- | c2 c2 f2 f2 | e4 d4 | g8 | f4 _e4 | d2 d2 f3 e | f2 g2 z2 a2 | %16
w: a- mi- ca|me- a,|_ a- mi- ca-|me- a,|au-|di, dul-|cis a- mi- *|* ca, a-|
 dd e2 f2 c2 | f4 d2 cd | ef g2 f2 d2 | f4 e4 | d3 e fd g2- | g2 f2 g4- | g4 z4 | z2 d2 B2 G2 | %24
w: mi- ca me- * *||* * * a, a-|mi- ca|me- * * * *|* * a,|_|au- ri- bus|
 d3 d G4 | z4 z2 d2 |"^b" d2 B2 e3 e | d2 g4 f2 | _e4 B4 | d4 A4 | f4 e4 | c4 d3 c | %32
w: per- ci- pe,|au-|ri- bus per- ci-|pe ver- ba|o- ris|me- i,|ver- ba|o- ris _|
 B2 c3 B BA/G/ |[M:2/4] A4 |[M:3/2] G4 d4 d4 | g2 f2 e2 d2 e4 | f4 a4 g4 | f8 _e4 | d4 g4 g4 | %39
w: _ me- * * * *||i, ni- gra|es _ _ _ sed|_ _ _|for- mo-|sa, ni- gra|
 c4 f4 e4 | d4 =B4 d4 | e4 f4 d4 | e4 g4 a4 |[M:2/2] d2 d2 _e3 e | d2 f2 fe dc | de fe cd e2- | %46
w: es sed for-|mo- sa, ni-|gra es _|sed for- mo-|sa, et ma- cu-|la non est _ _ _|_ _ _ _ _ _ in|
 ed d4 c2 | d4 d4- | d2 d2 d2 d2 | g6 f2 | e3 d e2 e2 | f2 d2 d2 G2 | d6 c2 | B2 G2 z2 A2 | f6 d2 | %55
w: _ _ _ _|te, i-|* de- o a-|mo- re|tu- * * o|lan- gue- o, a-|mo- re|tu- o, a-|mo- re|
 d2 d2 _e4- | e2 d2 d4 | f4 d2 e2 | f3 f f2 g2 | f3 e d2 c2 | B2 B2 d4 | e2 f3 f f2- | f2 g2 f3 e | %63
w: tu- o lan-|* gue- o,|et qui- a|tri- bu- lor ad|te con- fu- gi-|o, et qui-|a tri- bu- lor|_ ad te con-|
 d2 c2 d2 d2 | g3 g f2 e2 | d2 f2 f4 | e2 f2 d4 | e2 e2 g3 f/e/ | dcde f2 f2- | f2 e3 d d2- | %70
w: fu- gi- o, ad|te con- fu- gi-|o, ex- au-|di de- pre-|cor, ex- au- * *|* * * * di de-|* pre- * *|
 dc c2 d4 | A4 f4 | f2 e2 d2 c2 | A3 B c4 | d4 c4 | d4 z2 f2 | f2 e2 d4 | c2 AB cA Bc | de fc _e4 | %79
w: |cor, o-|ra- ti- o- nem|me- * am,|_ _|* o-|ra- ti- o-|nem me- * * * * *||
 d4 z2 A2 | B2 G2 d4 | A4 f4 | f2 e2 d3 e | f2 g2 e4 | d2 f2 f2 e2 | f2 g2 f3 e | dc de f2 d2 | %87
w: am, o-|ra- ti- o-|nem, o-|ra- ti- o- *|* nem me-|am, o- ra- ti-|o- nem me- *|* * * * * am,|
 z4 f4 | f2 e2 dc de | f2 f2 _ed dc/B/ | d2 c2 z2 c2 | c2 B2 G2 G2 | d4 d4- | d8 |] %94
w: o-|ra- ti- o- * * *|* nem me- * * * *|* am, o-|ra- ti- o- nem|me- am.|_|
V:4
 z4 G4- | G4 F4 | _E4 D4 | z2 A2 c2 G2 | _e3 d cB c2 | G4 z2 A2 | c2 c2 B4 | F4 z4 | z8 | z8 | F8 | %11
w: Au-|* di,|dul- cis|a- mi- ca|me- * * * *|a, a-|mi- ca me-|a,|||au-|
 A4 B4 | c4 z2 G2 | B2 B2 c4 | G4 z2 d2 | B2 G2 d3 c | =B2 c2 F4 | z4 z2 A2 | c2 G2 B4 | F3 G A4 | %20
w: di, dul-|cis, a-|mi- ca me-|a, a-|mi- ca me- *|* * a,|a-|mi- ca- me-|* * a,|
 z2 d2 B2 G2 | d3 d G4 | z8 | z8 | z2 d2 d2 B2 |"^b""^b" e3 e d4 | z2 G2 _E2 C2 | G3 G D4 | z8 | %29
w: au- ri- bus|per- ci- pe,|||au- ri- bus|per- ci- pe,|au- ri- bus|per- ci- pe||
 z2 d4 c2 | B2 d2 (3A3 B c2 | (3A3 B c2 D2 G2- | G2 F2 C2 _E2 |[M:2/4] D4 |[M:3/2] G12 | z4 c4 c4 | %36
w: ver- ba|o- ris me- * *|* * * a, ver-|* ba o- ris|me-|i,|ni- gra|
 F8 G4 | D4 F4 C4 | G4 G4 c2 B2 | A2 G2 F2 G2 A4 | D4 G4 G4 | C4 F4 G4 | c6 B2 A4 | %43
w: es sed|for- mo- sa,|ni- gra es- _|for- * * * mo-|* sa, ni-|gra es sed|for- * mo-|
[M:2/2] G2 G2 c3 c | G2 d3 c BA | G2 FG AB cB | GA B2 A4 | D8 | G6 G2 | C2 C2 c4- | c2 B2 A2 G2 | %51
w: sa, et ma- cu-|la non est _ _|_ in _ _ _ _ _|_ _ _ _|te,|i- de-|o a- mo-|* re tu- o|
 F2 G2 D2 d2- | d2 D2 D2 A2 | d6 c2 | B2 A2 B3 A | G3 F _E4- | E2 B2 B4 | z8 | z8 | z8 | d4 B4 | %61
w: lan- gue- o, i-|* de- o a-|mo- re|tu- o lan- *||* ge- o,||||et qui-|
 c2 d3 d d2- |"^b" d2 e2 d3 c | B2 A2 G4 | z8 | z2 d2 d4 | ^c2 d2 B4 | A4 z2 G2 | G4 F3 E | %69
w: a tri- bu- lor|_ ad te con-|fu- gi- o,||ex- au-|di de- pre-|cor, ex-|au- di _|
 D2 ^C2 D4 | A4 D2 d2 | d2 c2 B3 c | d2 A2 B2 F2 | z2 F2 F2 E2 | D3 E F2 C2 | G4 F4 | G8 | z8 | %78
w: _ de- pre-|* cor, o-|ra- ti- o- *|* nem me- am,|o- ra- ti-|o- * * nem|me- *|am,||
"^#" z8 | G4 G2 F2 | _E4 D2 d2 | d2 c2 B2 FG | AB c2 GA Bc | d2 G2 A4 | z2 d2 d2 c2 | BA GA B2 F2 | %86
w: |o- ra- ti-|o- nem, o-|ra- ti- o- * *|* * nem me- * * *|* * am,|o- ra- ti-|o- * * * * nem|
 G2 D2 z4 | z8 | z4 B4 | B2 A2 G4 | F4 c3 B | G3 A Bc d2 | D4 G4- | G8 |] %94
w: me- am,||o-|ra- ti- o-||* * * * nem|me- am.|_|

